icons/amigaos.svg

<!--
  - The MIT License (MIT)
  -
  - Copyright (c) 2015-2024 Elior "Mallowigi" Boukhobza
  -
  - Permission is hereby granted, free of charge, to any person obtaining a copy
  - of this software and associated documentation files (the "Software"), to deal
  - in the Software without restriction, including without limitation the rights
  - to use, copy, modify, merge, publish, distribute, sublicense, and/or sell
  - copies of the Software, and to permit persons to whom the Software is
  - furnished to do so, subject to the following conditions:
  -
  - The above copyright notice and this permission notice shall be included in all
  - copies or substantial portions of the Software.
  -
  - THE SOFTWARE IS PROVIDED "AS IS", WITHOUT WARRANTY OF ANY KIND, EXPRESS OR
  - IMPLIED, INCLUDING BUT NOT LIMITED TO THE WARRANTIES OF MERCHANTABILITY,
  - FITNESS FOR A PARTICULAR PURPOSE AND NONINFRINGEMENT. IN NO EVENT SHALL THE
  - AUTHORS OR COPYRIGHT HOLDERS BE LIABLE FOR ANY CLAIM, DAMAGES OR OTHER
  - LIABILITY, WHETHER IN AN ACTION OF CONTRACT, TORT OR OTHERWISE, ARISING FROM,
  - OUT OF OR IN CONNECTION WITH THE SOFTWARE OR THE USE OR OTHER DEALINGS IN THE
  - SOFTWARE.
  -
  -->

<svg version="1.1" xmlns="http://www.w3.org/2000/svg" viewBox="0 0 512 512" width="16px" height="16px">
  <path fill="#d54e4c" data-iconColor="AmigaOS"
        d="M467.9107361,113.9146957l-17.39328-5.1378403c-17.3257751-30.1328659-40.4584045-55.9781723-68.9611206-74.7109528C416.8124695,53.9752235,446.0862427,81.5549393,467.9107361,113.9146957z M345.860321,169.7282715c6.7757874-34.9505005,10.2567139-66.2549973,10.28302-91.6177902L278.1861877,52.779068c-14.889801,20.5139389-30.4752808,47.9087906-45.5264282,80.1524963L345.860321,169.7282715z M356.8607483,21.8364544l-14.5911865-5.7692642c9.8117981,9.4407616,13.9194031,31.6824055,13.8737793,62.0432892l56.4268494,18.317276C400.3698425,63.5918617,381.8467712,37.257988,356.8607483,21.8364544z M163.9686432,344.3333435l113.2005463,36.7966919c14.3536987-30.716217,28.1987305-65.8522339,40.5179138-103.7210388L192.141861,236.6526184C179.8486633,274.4902039,170.3956451,311.0726318,163.9686432,344.3333435z M427.8081665,196.3462219l55.113678,17.888382c-3.2676086-38.1878662-14.4610901-74.2603149-32.4043884-105.4577484l-37.9472656-12.3490982C423.2823181,125.2713013,428.5847473,159.4449005,427.8081665,196.3462219z M82.0207672,317.7153931c-0.7765656,36.9013062,4.5258713,71.0749207,15.2379761,99.918457l56.4268494,18.3172913c0.0263214-25.3366394,3.5072327-56.6672974,10.2830505-91.6177979L82.0207672,317.7153931z M101.3017731,207.1107941l-61.1106186-19.84198c-12.2930298,37.8661957-16.3898354,76.1640778-13.2827435,112.5581818l55.1123581,17.8883972C82.7702026,282.6053467,89.0102158,244.979599,101.3017731,207.1107941z M232.6597595,132.9315643l-81.947876-26.6182861c-20.029953,28.841095-37.0896149,62.9599304-49.4101105,100.7975159l90.8400879,29.5418243C204.4610443,198.7836456,218.3060608,163.6477966,232.6597595,132.9315643z M317.6871033,277.4089966l90.8400574,29.5418091c12.2915649-37.8689575,18.5315857-75.4945526,19.2810059-110.6045837l-81.9478455-26.6179504C339.4333191,202.9889832,329.9802856,239.5714111,317.6871033,277.4089966z M231.642746,461.2825317l56.4253693,18.3460693c25.6295471-17.0593567,49.972229-41.5643311,71.0489502-71.8804321l-81.947876-26.6181335C262.118042,413.3737488,246.5065765,440.7686157,231.642746,461.2825317z M221.7608185,34.4330177l-37.9474182-12.3204899c-32.8607483,14.6768398-63.1219254,37.3066864-88.2151794,66.2811584l55.1136627,17.9195938C171.7885895,75.997345,196.1312714,51.4660454,221.7608185,34.4330177z M327.6044922,11.2490635l-14.7612-3.8785939c-29.9133301-2.5520034-61.6969147,7.535872-91.0824738,27.0625477l56.4253693,18.3460503C296.0487671,28.1145496,313.691803,12.9095907,327.6044922,11.2490635z M69.332016,79.8761063c-25.8621407,26.9373398-46.2243958,59.9512405-58.6352768,97.7876816l29.4944134,9.6050262c12.3178749-37.8665009,31.5189514-71.263382,55.4070663-98.8751297L69.332016,79.8761063z M0,291.0691528c5.1394768,39.1385193,19.2491322,76.430481,40.8533058,108.9834595l18.4581795,5.2321472c-17.9433022-31.1974487-29.1367779-67.2698975-32.4030762-105.4577637L0,291.0691528z M482.9218445,214.2346039c3.1057739,36.3941193-0.9910278,74.6920013-13.2840576,112.5581818l29.9560242,9.6821899c12.3381348-38.355072,15.1781616-77.4980164,9.8307495-114.8892059L482.9218445,214.2346039z M326.015564,491.9490662l19.7470093,6.261261c36.12146-13.6751709,69.0072327-35.3816833,95.8566284-63.7072449l-27.3884888-8.835144C389.1374817,454.642395,358.8762817,477.2722473,326.015564,491.9490662z M359.1170654,407.7481689l55.1136475,17.9197693c23.8881226-27.6117554,43.0892029-61.0086365,55.407074-98.8751526l-61.1106262-19.84198C396.2065125,344.7883911,379.1470032,378.9072266,359.1170654,407.7481689z M175.4836273,501.4790955c50.4016266,16.3663025,103.159256,11.6511536,150.5319366-9.5300293l-37.9474487-12.3204651C251.1118927,504.1858826,211.5299225,513.1851807,175.4836273,501.4790955z M231.642746,461.2825317l-77.9571533-25.3313904c-0.0549164,36.5822449,7.0688934,60.7367859,21.7980347,65.5279541C190.2127686,506.2493286,210.1909027,490.9031372,231.642746,461.2825317z M286.710144,2.6997783C245.6938782-2.458005,204.95401,2.508374,167.5455017,16.0590172l16.2678986,6.0535107C216.1270599,7.6645226,251.4940338,0.5685048,286.710144,2.6997783z M97.2587433,417.6338501l-37.947258-12.3490906c25.8699875,44.9929199,65.7997818,79.8072815,116.172142,96.1943359C139.4376678,489.7524109,112.7110138,459.2217102,97.2587433,417.6338501z"/>
</svg>

<svg xmlns="http://www.w3.org/2000/svg" viewBox="0 0 512 512"><path fill="#d54e4c" d="m467.91 113.915-17.393-5.138c-17.325-30.133-40.458-55.978-68.96-74.711 35.255 19.91 64.53 47.489 86.354 79.849m-122.05 55.813c6.776-34.95 10.257-66.255 10.283-91.618l-77.957-25.33c-14.89 20.513-30.475 47.908-45.526 80.152zm11-147.892-14.59-5.769c9.811 9.441 13.919 31.683 13.873 62.043l56.427 18.318c-12.2-32.836-30.723-59.17-55.71-74.592M163.97 344.333l113.2 36.797c14.354-30.716 28.199-65.852 40.518-103.721l-125.545-40.756c-12.293 37.837-21.746 74.42-28.173 107.68m263.84-147.987 55.113 17.889c-3.268-38.188-14.461-74.26-32.405-105.458l-37.947-12.35c10.712 28.844 16.015 63.018 15.238 99.92M82.02 317.716c-.777 36.9 4.526 71.074 15.238 99.918l56.427 18.317c.026-25.336 3.507-56.667 10.283-91.618zM101.3 207.11l-61.11-19.842c-12.293 37.866-16.39 76.164-13.283 112.558l55.113 17.888c.75-35.11 6.99-72.735 19.28-110.604m131.359-74.18-81.948-26.618c-20.03 28.841-37.09 62.96-49.41 100.798l90.84 29.542c12.319-37.87 26.164-73.005 40.518-103.721m85.027 144.478 90.84 29.542c12.292-37.87 18.532-75.495 19.281-110.605l-81.948-26.618c-6.427 33.261-15.88 69.843-28.173 107.681m-86.044 183.874 56.425 18.346c25.63-17.06 49.972-41.565 71.05-71.88l-81.949-26.619c-15.051 32.244-30.662 59.639-45.526 80.153m-9.882-426.85-37.948-12.32c-32.86 14.676-63.122 37.306-88.215 66.28l55.114 17.92c21.077-30.316 45.42-54.847 71.049-71.88m105.843-23.184-14.76-3.879c-29.914-2.552-61.698 7.536-91.083 27.063l56.425 18.346c17.863-24.664 35.506-39.87 49.418-41.53M69.332 79.876c-25.862 26.937-46.224 59.951-58.635 97.788l29.494 9.605c12.318-37.867 31.52-71.264 55.407-98.875zM0 291.07c5.14 39.139 19.25 76.43 40.853 108.984l18.458 5.232c-17.943-31.198-29.136-67.27-32.403-105.458zm482.922-76.834c3.106 36.394-.991 74.692-13.284 112.558l29.956 9.682c12.338-38.355 15.178-77.498 9.83-114.89zM326.016 491.949l19.747 6.261c36.121-13.675 69.007-35.381 95.856-63.707l-27.388-8.835c-25.094 28.974-55.355 51.604-88.215 66.281m33.101-84.2 55.114 17.919c23.888-27.612 43.089-61.009 55.407-98.875l-61.11-19.842c-12.321 37.837-29.381 71.956-49.41 100.797m-183.633 93.73c50.401 16.366 103.159 11.651 150.532-9.53l-37.948-12.32c-36.956 24.557-76.538 33.556-112.584 21.85m56.159-40.196-77.957-25.332c-.055 36.582 7.068 60.737 21.798 65.528 14.729 4.77 34.707-10.576 56.159-40.196M286.71 2.7c-41.016-5.158-81.756-.192-119.164 13.359l16.267 6.054C216.127 7.665 251.494.569 286.71 2.7M97.26 417.634l-37.948-12.35c25.87 44.994 65.8 79.808 116.173 96.195-36.046-11.727-62.773-42.257-78.225-83.845" data-iconColor="AmigaOS"/></svg>
